X: 3
T: Troll Soup (\251Brendan Taaffe)
%%scale .9
$SmallLMargin
$SmallRMargin
M: C|
L: 1/8
R: reel
K:F#min
"F#m"F2Ac BAFE|F/2F/2F AF "E"EFAE|"F#m"F2 Ac BAFA|fcef "E"ecBA|
"F#m"F2Ac BAFE|F/2F/2F AF "E"EFAB|"A"cBAc "Bm"BAFD| "C#m"EFFE "F#m" F3z:|
|:"F#m"f3a fecA|"Bm"B3c BAFA|"F#m"f3a fe c2|"C#m"effe "F#m"f2 ce|
"F#m"f2fa fecA|"Bm"B3c BAF2|"F#m"ABBA cBAF|"C#m"EFFE "F#m"F3z:|]

#include "LeftHeader.h"
%%footer 4/18/11 For use only by Roaring Jelly members
%%text Set 106 NEFFA 2011 Jigs to Reel 
%D/Ddor/Em The Rambling Pitchfork/The Trows o' Truggles Water/Dancing Bear
$SmallLMargin
$SmallRMargin
%%scale .85
